X: 219
T:North Skelton 2, v 2
% Nottingham Music Database
S:Trad, via EF
M:6/8
K:G
"G"ded gdB|"D7"c2B A2F|"G"G2A B2c|"D7"d3 A3|"G"ded gbg|
"C"f2e c2e|"G"ded "D7"e2f|"G"g3 G3|"G"BAB Bcd|"C"e3 E3|"D7"ABA ABc|
"G"d3 "D7"D3|ded bgd|"C"f2e c2e|"G"ded "D7"e2f|"G"g3 G3||<end>
<start>
